static/img/kroki/cdd671bdbb2b3b4c3ddc01ad3fc90752.svg

<?xml version="1.0" encoding="us-ascii" standalone="no"?><svg xmlns="http://www.w3.org/2000/svg" xmlns:xlink="http://www.w3.org/1999/xlink" contentStyleType="text/css" height="152px" preserveAspectRatio="none" style="width:296px;height:152px;" version="1.1" viewBox="0 0 296 152" width="296px" zoomAndPan="magnify"><defs/><g><!--class aws_cloudfront_cache_policy--><g id="elem_aws_cloudfront_cache_policy"><rect codeLine="22" fill="#3D176E" height="39.7891" id="aws_cloudfront_cache_policy" rx="2.5" ry="2.5" style="stroke:#000D19;stroke-width:0.5;" width="282" x="7" y="106.79"/><ellipse cx="22" cy="126.6845" fill="#ADD1B2" rx="11" ry="11" style="stroke:#181818;stroke-width:1.0;"/><path d="M24.9688,132.3252 Q24.3906,132.622 23.75,132.7627 Q23.1094,132.9189 22.4063,132.9189 Q19.9063,132.9189 18.5781,131.2783 Q17.2656,129.622 17.2656,126.497 Q17.2656,123.372 18.5781,121.7158 Q19.9063,120.0595 22.4063,120.0595 Q23.1094,120.0595 23.75,120.2158 Q24.4063,120.372 24.9688,120.6689 L24.9688,123.3877 Q24.3438,122.8095 23.75,122.5439 Q23.1563,122.2627 22.5313,122.2627 Q21.1875,122.2627 20.5,123.3408 Q19.8125,124.4033 19.8125,126.497 Q19.8125,128.5908 20.5,129.6689 Q21.1875,130.7314 22.5313,130.7314 Q23.1563,130.7314 23.75,130.4658 Q24.3438,130.1845 24.9688,129.6064 L24.9688,132.3252 Z " fill="#000000"/><text fill="#D9B8FF" font-family="Helvetica" font-size="17" lengthAdjust="spacing" textLength="240" x="41" y="132.5698">aws_cloudfront_cache_policy</text></g><!--class aws_cloudfront_distribution--><g id="elem_aws_cloudfront_distribution"><rect codeLine="24" fill="#3D176E" height="39.7891" id="aws_cloudfront_distribution" rx="2.5" ry="2.5" style="stroke:#000D19;stroke-width:0.5;" width="274" x="11" y="7"/><ellipse cx="26" cy="26.8945" fill="#ADD1B2" rx="11" ry="11" style="stroke:#181818;stroke-width:1.0;"/><path d="M28.9688,32.5352 Q28.3906,32.832 27.75,32.9727 Q27.1094,33.1289 26.4063,33.1289 Q23.9063,33.1289 22.5781,31.4883 Q21.2656,29.832 21.2656,26.707 Q21.2656,23.582 22.5781,21.9258 Q23.9063,20.2695 26.4063,20.2695 Q27.1094,20.2695 27.75,20.4258 Q28.4063,20.582 28.9688,20.8789 L28.9688,23.5977 Q28.3438,23.0195 27.75,22.7539 Q27.1563,22.4727 26.5313,22.4727 Q25.1875,22.4727 24.5,23.5508 Q23.8125,24.6133 23.8125,26.707 Q23.8125,28.8008 24.5,29.8789 Q25.1875,30.9414 26.5313,30.9414 Q27.1563,30.9414 27.75,30.6758 Q28.3438,30.3945 28.9688,29.8164 L28.9688,32.5352 Z " fill="#000000"/><text fill="#D9B8FF" font-family="Helvetica" font-size="17" lengthAdjust="spacing" textLength="232" x="45" y="32.7798">aws_cloudfront_distribution</text></g><!--link aws_cloudfront_distribution to aws_cloudfront_cache_policy--><g id="link_aws_cloudfront_distribution_aws_cloudfront_cache_policy"><path codeLine="26" d="M148,47.22 C148,62.49 148,83.92 148,100.53 " fill="none" id="aws_cloudfront_distribution-to-aws_cloudfront_cache_policy" style="stroke:#1A83AF;stroke-width:2.0;"/><polygon fill="#1A83AF" points="148,105.41,152,96.41,148,100.41,144,96.41,148,105.41" style="stroke:#1A83AF;stroke-width:2.0;"/></g><!--SRC=[XP91IyD048Nl_HKBFHSQWpQv26cXwAM8zIOI9hkppT9aDynk3L7yxpQDofgqwNNUnxptXicLG8PbvHfMOfaXsOdTArq1GSaI8bElJ668JQK46IxwujfeTnNOG8di0OjtT8f3dtZ95Tzhj9RTUD8I-7v7vg15jzuHQ7kKK3kFMXLWRU8SgUpWq0iZuYoIia_sbqv34IpkS80P4aW_o7m-5q7SHwvQZVR-8xRg0rdW7srZ70vY3YnEr6ZAbl123eh-wXSpFe4GIk_OhJTxxZAHHlett-OWJDtI4WhhsrY7XCOr5Qu6hJ2EX5oSXHylmRoz78FQfhmm1o7fM27bm7DCArCeth3FoTTvIYZR_Oao-aIDwRFNQP14OR9-czsFsNq3]--></g></svg>

<svg xmlns="http://www.w3.org/2000/svg" width="296" height="152" preserveAspectRatio="none" style="width:296px;height:152px"><rect width="282" height="39.789" x="7" y="106.79" fill="#3D176E" rx="2.5" ry="2.5" style="stroke:#000d19;stroke-width:.5"/><circle cx="22" cy="126.684" r="11" fill="#ADD1B2" style="stroke:#181818;stroke-width:1"/><path d="M24.969 132.325q-.578.297-1.219.438-.64.156-1.344.156-2.5 0-3.828-1.64-1.312-1.657-1.312-4.782t1.312-4.781q1.328-1.656 3.828-1.656.703 0 1.344.156.656.156 1.219.453v2.719q-.625-.579-1.219-.844-.594-.281-1.219-.281-1.343 0-2.031 1.078-.688 1.062-.688 3.156 0 2.094.688 3.172.688 1.062 2.031 1.062.625 0 1.219-.265.594-.281 1.219-.86v2.72Z"/><text x="41" y="132.57" fill="#D9B8FF" font-family="Helvetica" font-size="17" textLength="240">aws_cloudfront_cache_policy</text><rect width="274" height="39.789" x="11" y="7" fill="#3D176E" rx="2.5" ry="2.5" style="stroke:#000d19;stroke-width:.5"/><circle cx="26" cy="26.895" r="11" fill="#ADD1B2" style="stroke:#181818;stroke-width:1"/><path d="M28.969 32.535q-.578.297-1.219.438-.64.156-1.344.156-2.5 0-3.828-1.64-1.312-1.657-1.312-4.782t1.312-4.781q1.328-1.656 3.828-1.656.703 0 1.344.156.656.156 1.219.453v2.719q-.625-.578-1.219-.844-.594-.281-1.219-.281-1.343 0-2.031 1.078-.688 1.062-.688 3.156 0 2.094.688 3.172.688 1.062 2.031 1.062.625 0 1.219-.265.594-.281 1.219-.86v2.72Z"/><text x="45" y="32.78" fill="#D9B8FF" font-family="Helvetica" font-size="17" textLength="232">aws_cloudfront_distribution</text><path fill="none" d="M148 47.22v53.31" style="stroke:#1a83af;stroke-width:2"/><path fill="#1A83AF" d="m148 105.41 4-9-4 4-4-4 4 9z" style="stroke:#1a83af;stroke-width:2"/></svg>
